src/svg/indicator.svg

<svg width="32" height="32" viewBox="0 0 32 32" xmlns="http://www.w3.org/2000/svg">
<path fill-rule="evenodd" clip-rule="evenodd" d="M6 6C6 5.44772 5.55228 5 5 5C4.44772 5 4 5.44772 4 6V26C4 26.5523 4.44772 27 5 27H27C27.5523 27 28 26.5523 28 26C28 25.4477 27.5523 25 27 25H6V6ZM17 10C17 9.44772 16.5523 9 16 9C15.4477 9 15 9.44772 15 10L15 22C15 22.5523 15.4477 23 16 23C16.5523 23 17 22.5523 17 22L17 10ZM12 14C12 13.4477 11.5523 13 11 13C10.4477 13 10 13.4477 10 14L10 22C10 22.5523 10.4477 23 11 23C11.5523 23 12 22.5523 12 22V14ZM21 17C21.5523 17 22 17.4477 22 18V22C22 22.5523 21.5523 23 21 23C20.4477 23 20 22.5523 20 22V18C20 17.4477 20.4477 17 21 17Z"/>
</svg>

<svg xmlns="http://www.w3.org/2000/svg" width="32" height="32" fill="none" viewBox="0 0 32 32">
  <g class="indicator">
    <path  fill-rule="evenodd" d="M6 6a1 1 0 00-2 0v20a1 1 0 001 1h22a1 1 0 100-2H6V6zm11 4a1 1 0 10-2 0v12a1 1 0 102 0V10zm-5 4a1 1 0 10-2 0v8a1 1 0 102 0v-8zm9 3a1 1 0 011 1v4a1 1 0 11-2 0v-4a1 1 0 011-1z" class="Union" clip-rule="evenodd"/>
  </g>
</svg>
